Numix-GalliumOS/16/mimetypes/text-x-c++.svg

<?xml version="1.0" encoding="UTF-8" standalone="no"?>
<svg
   xmlns:dc="http://purl.org/dc/elements/1.1/"
   xmlns:cc="http://creativecommons.org/ns#"
   xmlns:rdf="http://www.w3.org/1999/02/22-rdf-syntax-ns#"
   xmlns:svg="http://www.w3.org/2000/svg"
   xmlns="http://www.w3.org/2000/svg"
   xmlns:sodipodi="http://sodipodi.sourceforge.net/DTD/sodipodi-0.dtd"
   xmlns:inkscape="http://www.inkscape.org/namespaces/inkscape"
   width="16"
   height="16"
   viewBox="0 0 16 16"
   id="svg2"
   version="1.1"
   inkscape:version="0.48.5 r10040"
   sodipodi:docname="text-x-c++.svg">
  <metadata
     id="metadata22">
    <rdf:RDF>
      <cc:Work
         rdf:about="">
        <dc:format>image/svg+xml</dc:format>
        <dc:type
           rdf:resource="http://purl.org/dc/dcmitype/StillImage" />
      </cc:Work>
    </rdf:RDF>
  </metadata>
  <defs
     id="defs20" />
  <sodipodi:namedview
     pagecolor="#ffffff"
     bordercolor="#666666"
     borderopacity="1"
     objecttolerance="10"
     gridtolerance="10"
     guidetolerance="10"
     inkscape:pageopacity="0"
     inkscape:pageshadow="2"
     inkscape:window-width="1280"
     inkscape:window-height="970"
     id="namedview18"
     showgrid="true"
     inkscape:zoom="20.85965"
     inkscape:cx="8.1933482"
     inkscape:cy="6.4615238"
     inkscape:window-x="0"
     inkscape:window-y="0"
     inkscape:window-maximized="1"
     inkscape:current-layer="svg2">
    <inkscape:grid
       type="xygrid"
       id="grid3010" />
  </sodipodi:namedview>
  <path
     style="fill:#2d2d2d;fill-opacity:1"
     d="M 2.667969,-4.46e-4 C 2.324219,-4.46e-4 2,0.337812 2,0.6964467 L 2,15.303108 C 2,15.641365 2.34375,16 2.667969,16 l 10.664062,0 C 13.65625,16 14,15.641365 14,15.303108 L 14,3.9995538 10,-4.46e-4 z"
     id="path4-9"
     inkscape:connector-curvature="0"
     sodipodi:nodetypes="ssssssccs" />
  <path
     style="fill:#dcdcdc"
     inkscape:connector-curvature="0"
     id="path12"
     d="M 3,9.4551759 C 3,9.0974158 3.052355,8.7440185 3.1570656,8.3949837 3.2574134,8.0415863 3.4057526,7.727455 3.5977217,7.4525899 3.7984172,7.1777248 4.0383789,6.9552149 4.3219693,6.7806974 4.6055598,6.6105439 4.9284164,6.5276478 5.2905402,6.5276478 c 0.4275682,0 0.7940546,0.1177995 1.1038222,0.3533975 C 6.7084937,7.1210069 6.93973,7.4264117 7.0880692,7.81035 L 6.3769118,8.4124355 C 6.3201928,8.2466434 6.2503858,8.1070295 6.1674909,7.9979564 6.0802311,7.8845196 5.9886098,7.7928982 5.8838993,7.727455 5.7835526,7.6576481 5.6832049,7.6140182 5.5741318,7.5834774 5.4650576,7.5529377 5.364711,7.5354848 5.2643632,7.5354848 c -0.2225099,0 -0.4144791,0.056719 -0.5802711,0.1745174 C 4.5183011,7.823439 4.3786873,7.976142 4.2652504,8.1637473 4.1605399,8.3469912 4.0776451,8.556412 4.0165634,8.79201 c -0.052355,0.2312363 -0.078532,0.4624715 -0.078532,0.6980698 0,0.257413 0.030541,0.506101 0.091621,0.7504262 0.069807,0.235597 0.1614283,0.445018 0.2792278,0.628262 0.1177995,0.183242 0.2617761,0.327219 0.4275681,0.440656 0.1701537,0.109078 0.3490348,0.165791 0.5497292,0.165791 0.1003478,0 0.2050582,-0.01746 0.3141313,-0.05235 0.109073,-0.03054 0.2094209,-0.08289 0.3097686,-0.157067 0.1047104,-0.06981 0.1963318,-0.161427 0.2835904,-0.2705 0.087259,-0.117805 0.1570657,-0.253057 0.2094209,-0.414486 l 0.75915,0.536642 c -0.069807,0.222509 -0.1745173,0.418843 -0.3141312,0.588997 -0.1352501,0.165791 -0.2923157,0.305405 -0.4668332,0.418842 -0.1745173,0.117798 -0.3577611,0.205057 -0.5497302,0.266138 -0.1963318,0.06109 -0.3839382,0.09162 -0.5759074,0.09162 -0.331583,0 -0.6369878,-0.08726 -0.9162156,-0.266138 C 4.0689186,12.042397 3.8289581,11.811162 3.6282625,11.531934 3.427567,11.24398 3.2748651,10.921122 3.1614283,10.563362 3.0523552,10.201238 3,9.8303888 3,9.4551759" />
  <path
     style="fill:#dcdcdc"
     sodipodi:nodetypes="cccccccccccc"
     inkscape:connector-curvature="0"
     id="path14"
     d="M 10,10 9,10 9,11 8,11 8,10 7,10 7,9 8,9 8,8 9,8 9,9 10,9" />
  <path
     style="fill:#dcdcdc"
     sodipodi:nodetypes="cccccccccccc"
     inkscape:connector-curvature="0"
     id="path16"
     d="m 13,9 0,1 -1,0 0,1 -1,0 0,-1 -1,0 0,-1 1,0 0,-1 1,0 0,1" />
  <path
     style="fill:#000000;fill-opacity:0.19599998"
     d="m 10.583223,3.3315848 0.0154,0.01953 0.04005,-0.01953 z m 0.02978,0.667969 3.387,3.664062 0,-3.664062 z"
     id="path6"
     inkscape:connector-curvature="0"
     sodipodi:nodetypes="cccccccc" />
  <path
     style="fill:#ffffff;fill-opacity:0.39200003"
     d="m 10,-4.46e-4 3.996396,3.9999998 -3.383784,0 C 10.313513,3.9995538 10,3.6824368 10,3.3833378 z"
     id="path8"
     inkscape:connector-curvature="0"
     sodipodi:nodetypes="ccssc" />
</svg>

<svg xmlns="http://www.w3.org/2000/svg" viewBox="0 0 16 16">
 <path d="m 2.668 0 c -0.344 0 -0.668 0.338 -0.668 0.697 l 0 14.607 c 0 0.338 0.344 0.697 0.668 0.697 l 10.664 0 c 0.324 0 0.668 -0.359 0.668 -0.697 l 0 -11.304 -4 -4 z" style="fill:#2d2d2d;fill-opacity:1"/>
 <path d="m 3 9.455 c 0 -0.358 0.052 -0.711 0.157 -1.06 0.1 -0.353 0.249 -0.668 0.441 -0.942 0.201 -0.275 0.441 -0.497 0.724 -0.672 0.284 -0.17 0.606 -0.253 0.969 -0.253 c 0.428 0 0.794 0.118 1.104 0.353 c 0.314 0.24 0.545 0.545 0.694 0.929 l -0.711 0.602 c -0.057 -0.166 -0.127 -0.305 -0.209 -0.414 -0.087 -0.113 -0.179 -0.205 -0.284 -0.271 -0.1 -0.07 -0.201 -0.113 -0.31 -0.144 -0.109 -0.031 -0.209 -0.048 -0.31 -0.048 c -0.223 0 -0.414 0.057 -0.58 0.175 c -0.166 0.113 -0.305 0.266 -0.419 0.454 -0.105 0.183 -0.188 0.393 -0.249 0.628 c -0.052 0.231 -0.079 0.462 -0.079 0.698 0 0.257 0.031 0.506 0.092 0.75 0.07 0.236 0.161 0.445 0.279 0.628 0.118 0.183 0.262 0.327 0.428 0.441 0.17 0.109 0.349 0.166 0.55 0.166 0.1 0 0.205 -0.017 0.314 -0.052 0.109 -0.031 0.209 -0.083 0.31 -0.157 0.105 -0.07 0.196 -0.161 0.284 -0.271 0.087 -0.118 0.157 -0.253 0.209 -0.414 l 0.759 0.537 c -0.07 0.223 -0.175 0.419 -0.314 0.589 -0.135 0.166 -0.292 0.305 -0.467 0.419 -0.175 0.118 -0.358 0.205 -0.55 0.266 -0.196 0.061 -0.384 0.092 -0.576 0.092 -0.332 0 -0.637 -0.087 -0.916 -0.266 c -0.271 -0.175 -0.51 -0.406 -0.711 -0.685 -0.201 -0.288 -0.353 -0.611 -0.467 -0.969 -0.109 -0.362 -0.161 -0.733 -0.161 -1.108" style="fill:#dcdcdc"/>
 <path d="m 10 10 -1 0 0 1 -1 0 0 -1 -1 0 0 -1 1 0 0 -1 1 0 0 1 1 0" style="fill:#dcdcdc"/>
 <path d="m 13 9 0 1 -1 0 0 1 -1 0 0 -1 -1 0 0 -1 1 0 0 -1 1 0 0 1" style="fill:#dcdcdc"/>
 <path d="m 10.583 3.332 0.015 0.02 0.04 -0.02 z m 0.03 0.668 3.387 3.664 0 -3.664 z" style="fill:#000;fill-opacity:0.196"/>
 <path d="m 10 0 3.996 4 -3.384 0 c -0.299 0 -0.613 -0.317 -0.613 -0.616 z" style="fill:#fff;fill-opacity:0.392"/>
</svg>
